X:1
T:Modena, 87.87.87
T:Modena, 87.87.87
T:John Varley Roberts, 1889
T:Public Domain Courtesy of the Cyber Hymnal™
C:John Varley Roberts, 1889
Z:Public Domain
Z:Courtesy of the Cyber Hymnal™
%%score ( 1 2 ) ( 3 4 )
L:1/8
Q:1/4=115
M:4/4
K:D
V:1 treble 
V:2 treble 
V:3 bass 
V:4 bass 
V:1
 [Fd]2 [Ec]2 [Dd]2 [DF]2 | [DG]2 [DB]2 [DB]2 [DA]2 | [^DB]2 [DF]2 [FA]2 [EG]2 | [DF]2 [CE]2 [DF]4 | %4
 [DF]2 [EF]2 [Dd]2 [Fc]2 | [FB]2 [FA]2 [E^G]2 [EB]2 | [EA]2 [Ge]2 [Fe]2 [Fd]2 | [^Gc]2 [GB]2 A4 | %8
 [FB]3 [FB] [EB]2 [DE]2 | [CA]3 [CA] [DA]2 D2 | [DG]2 [CA]2 [DF]2 [Dd]2 | [DF]2 [CE]2 D4 |] %12
V:2
 x8 | x8 | x8 | x8 | x8 | x8 | x8 | x4 A4 | x8 | x6 D2 | x8 | x4 D4 |] %12
V:3
 [D,A,]2 [E,G,]2 [F,A,]2 [D,A,]2 | [B,,G,]2 [G,,G,]2 [D,G,]2 [D,F,]2 | %2
 [B,,B,]2 [B,,B,]2 [E,=C]2 [E,B,]2 | A,2 [A,,A,]2 [D,A,]4 | [D,A,]2 [C,^A,]2 [B,,B,]2 [C,A,]2 | %5
 [D,B,]2 [^D,B,]2 [E,B,]2 [=D,^G,]2 | [C,A,]2 [C,^A,]2 [D,B,]2 [D,B,]2 | [E,D]2 [E,D]2 [A,C]4 | %8
 [A,D]3 [A,D] [G,B,]2 [G,B,]2 | [G,A,]3 [G,A,] [F,A,]2 [B,,B,]2 | %10
 [E,B,]2 [A,,A,]2 [D,A,]2 [B,,^G,]2 | [A,,A,]2 [A,,G,]2 [D,F,]4 |] %12
V:4
 x8 | x8 | x8 | A,2 x6 | x8 | x8 | x8 | x8 | x8 | x8 | x8 | x8 |] %12

